packages/icons/svg/24/Fashion.svg

<svg width="24" height="24" viewBox="0 0 24 24" fill="none" xmlns="http://www.w3.org/2000/svg">
<path d="M18 11L17.6838 10.0513L17 10.2792V11H18ZM6 11H7V10.2792L6.31623 10.0513L6 11ZM9 4L9.89443 3.55279C9.6981 3.16014 9.26865 2.94144 8.83562 3.0136L9 4ZM15 4L15.1644 3.0136C14.7314 2.94144 14.3019 3.16014 14.1056 3.55279L15 4ZM15.8354 4.13922L15.9998 3.15283L15.9998 3.15282L15.8354 4.13922ZM8.16457 4.13922L8.00019 3.15282L8.00017 3.15283L8.16457 4.13922ZM3.68377 10.2279L4 9.27924L3.68377 10.2279ZM20.3162 10.2279L20 9.27924L20.3162 10.2279ZM20.1644 4.86073L20 5.84712L20.1644 4.86073ZM20 5.84712V9.27924H22V5.84712H20ZM20 9.27924L17.6838 10.0513L18.3162 11.9487L20.6325 11.1766L20 9.27924ZM17 11V19H19V11H17ZM7 19V11H5V19H7ZM6.31623 10.0513L4 9.27924L3.36754 11.1766L5.68377 11.9487L6.31623 10.0513ZM4 9.27924V5.84712H2V9.27924H4ZM9 4C8.10557 4.44721 8.10575 4.44757 8.10593 4.44794C8.106 4.44807 8.10619 4.44844 8.10632 4.44871C8.10659 4.44924 8.10687 4.4498 8.10717 4.45039C8.10776 4.45157 8.10843 4.45288 8.10915 4.45432C8.11061 4.45718 8.11233 4.46054 8.11431 4.46438C8.11827 4.47206 8.12329 4.48166 8.12937 4.49305C8.14151 4.51582 8.15793 4.54584 8.17863 4.58208C8.21996 4.65441 8.27884 4.75228 8.35545 4.8672C8.50755 5.09535 8.73568 5.3999 9.04289 5.70711C9.65189 6.3161 10.6412 7 12 7V5C11.3588 5 10.8481 4.6839 10.4571 4.29289C10.2643 4.1001 10.1174 3.90465 10.0196 3.7578C9.97116 3.68522 9.93629 3.62684 9.91512 3.5898C9.90457 3.57134 9.89755 3.5584 9.89407 3.55187C9.89234 3.54862 9.89149 3.54699 9.89155 3.54709C9.89158 3.54715 9.89183 3.54764 9.89231 3.54858C9.89255 3.54906 9.89285 3.54964 9.8932 3.55034C9.89338 3.55069 9.89357 3.55107 9.89377 3.55148C9.89387 3.55168 9.89404 3.55201 9.89409 3.55211C9.89426 3.55244 9.89443 3.55279 9 4ZM12 7C13.3588 7 14.3481 6.3161 14.9571 5.70711C15.2643 5.3999 15.4924 5.09535 15.6446 4.8672C15.7212 4.75228 15.78 4.65441 15.8214 4.58208C15.8421 4.54584 15.8585 4.51582 15.8706 4.49305C15.8767 4.48166 15.8817 4.47206 15.8857 4.46438C15.8877 4.46054 15.8894 4.45718 15.8908 4.45432C15.8916 4.45288 15.8922 4.45157 15.8928 4.45039C15.8931 4.4498 15.8934 4.44924 15.8937 4.44871C15.8938 4.44844 15.894 4.44807 15.8941 4.44794C15.8942 4.44757 15.8944 4.44721 15 4C14.1056 3.55279 14.1057 3.55244 14.1059 3.55211C14.106 3.55201 14.1061 3.55168 14.1062 3.55148C14.1064 3.55107 14.1066 3.55069 14.1068 3.55034C14.1072 3.54964 14.1074 3.54906 14.1077 3.54858C14.1082 3.54764 14.1084 3.54715 14.1084 3.54709C14.1085 3.54699 14.1077 3.54862 14.1059 3.55187C14.1024 3.5584 14.0954 3.57134 14.0849 3.5898C14.0637 3.62684 14.0288 3.68522 13.9804 3.7578C13.8826 3.90465 13.7357 4.1001 13.5429 4.29289C13.1519 4.6839 12.6412 5 12 5V7ZM14.8356 4.9864L15.6711 5.12562L15.9998 3.15282L15.1644 3.0136L14.8356 4.9864ZM15.671 5.12561L20 5.84712L20.3288 3.87434L15.9998 3.15283L15.671 5.12561ZM4 5.84712L8.32897 5.12561L8.00017 3.15283L3.6712 3.87434L4 5.84712ZM8.32895 5.12562L9.16438 4.9864L8.83562 3.0136L8.00019 3.15282L8.32895 5.12562ZM17 19H12V21H17V19ZM12 19H7V21H12V19ZM4 9.27924H4H2C2 10.1401 2.55086 10.9044 3.36754 11.1766L4 9.27924ZM17 19V21C18.1046 21 19 20.1046 19 19H17ZM20 9.27924L20.6325 11.1766C21.4491 10.9044 22 10.1401 22 9.27924H20ZM22 5.84712C22 4.86945 21.2932 4.03507 20.3288 3.87434L20 5.84712V5.84712H22ZM5 19C5 20.1046 5.89543 21 7 21V19H5ZM4 5.84712V5.84712L3.6712 3.87434C2.70682 4.03507 2 4.86945 2 5.84712H4Z" fill="#858585"/>
</svg>

<svg width="24" height="24" fill="none" xmlns="http://www.w3.org/2000/svg" viewBox="0 0 24 24"><path d="M18 11l-.316-.949-.684.228V11h1zM6 11h1v-.72l-.684-.229L6 11zm3-7l.894-.447a1 1 0 00-1.058-.54L9 4zm6 0l.164-.986a1 1 0 00-1.058.539L15 4zm.835.14L16 3.152l-.165.986zm-7.67 0L8 3.152l.165.986zm-4.481 6.088L4 9.279l-.316.949zm16.632 0L20 9.279l.316.949zm-.152-5.367L20 5.847l.164-.986zM20 5.847V9.28h2V5.847h-2zm0 3.432l-2.316.772.632 1.898 2.317-.772L20 9.279zM17 11v8h2v-8h-2zM7 19v-8H5v8h2zm-.684-8.949L4 9.28l-.632 1.898 2.316.772.632-1.898zM4 9.28V5.847H2V9.28h2zM9 4l-.894.448.001.002.002.004a2.747 2.747 0 00.07.128 5.558 5.558 0 00.864 1.125C9.652 6.317 10.64 7 12 7V5c-.641 0-1.152-.316-1.543-.707a3.551 3.551 0 01-.565-.744l.001.001v.001l.001.001L9 4zm3 3c1.359 0 2.348-.684 2.957-1.293a5.566 5.566 0 00.914-1.214 2.683 2.683 0 00.02-.039l.002-.004a.043.043 0 01.001-.002L15 4l-.894-.448V3.55l.002-.001v-.002l-.002.005a2.932 2.932 0 01-.126.206 3.551 3.551 0 01-.437.535C13.152 4.683 12.64 5 12 5v2zm2.836-2.014l.835.14L16 3.153l-.836-.14-.328 1.973zm.835.14L20 5.847l.329-1.973-4.33-.721-.328 1.973zM4 5.847l4.329-.721L8 3.153l-4.329.721L4 5.847zm4.329-.721l.835-.14-.328-1.972L8 3.153l.329 1.973zM17 19h-5v2h5v-2zm-5 0H7v2h5v-2zM4 9.28H2a2 2 0 001.368 1.897L4 9.279zM17 19v2a2 2 0 002-2h-2zm3-9.72l.633 1.897A2 2 0 0022 9.279h-2zm2-3.433a2 2 0 00-1.671-1.973L20 5.847h2zM5 19a2 2 0 002 2v-2H5zM4 5.847l-.329-1.973A2 2 0 002 5.847h2z" fill="currentColor"></path></svg>
